X:1
T:Title
%%score [ ( 1 2 ) ( 3 4 ) ]
L:1/8
Q:1/4=90
M:4/4
K:G
V:1 treble nm="S A"
V:2 treble 
V:3 bass nm="T B"
V:4 bass 
V:1
"^Hornsey (87. 83)""^S. S. Wesley\n(1810-1876)""^Sabine Baring Gould\n(1810-76)""^On the resurrection morning" D2 D2 G2 B2 | %1
 A2 B2 c2 d2 | B2 AG A2 d2 | E2 G2 F4 || B2 e2 e2 d2 | G2 c2 c2 B2 | E4 F4 | G8 |] %8
V:2
 D2 D2 E2 G2 | G2 F2 G2 A2 | D2 E2 E2 D2 | D2 ^C2 D4 || D2 E2 A2 A2 | G2 G2 =F2 F2 | E4 (E2 D2) | %7
 D8 |] %8
V:3
"^1. On the resurrection morning\nSoul and body meet again;\nNo more sorrow, no more weeping,\nNo more pain!\n\n2. Here awhile they must be parted,\nAnd the flesh its Sabbath keep,\nWaiting in a holy stillness,\nWrapt in sleep.\n\n3. For a while the wearied body\nLies with feet towards the morn;\nTill the last and brightest Easter\nDay be born.\n\n4. But the soul in contemplation\nUtters earnest prayer and strong,\nBursting at the resurrection\nInto song." B,2 A,2 B,2 D2 | %1
 E2 D2 CB, A,2 | B,2 B,2 A,2 F,2 | %3
 B,2 A,2"^5. Soul and body reunited\nThenceforth nothing shall divide,\nWaking up in Christ's own likeness,\nSatisfied.\n\n6. O the beauty, O the gladness\nOf that resurrection day,\nWhich shall not through endless ages\nPass away.\n\n7. On that happy Easter morning\nAll the graves their dead restore;\nFather, sister, child, and mother\nMeet once more.\n\n8. To that brightest of all meetings\nBring us, Jesu Christ, at last,\nBy thy Cross, through death and judgment,\nHolding fast.\n" A,4 || %4
 B,2 B,2 A,2 D2 | D2 C2 =F,2 B,2 | (B,2 A,2) (A,3 C) | B,8 |] %8
V:4
 G,2 F,2 E,2 D,2 | C,2 D,2 E,2 F,2 | G,2 G,2 F,2 B,,A,, | G,,2 A,,2 D,4 || G,2 G,2 F,2 B,,2 | %5
 E,2 E,2 D,2 G,,2 | C,4 D,4 | G,,8 |] %8

